dist/img/search.svg

<svg width="23" height="23" viewBox="0 0 23 23" fill="none" xmlns="http://www.w3.org/2000/svg">
<path d="M15.4286 9.57143C15.4286 12.8795 12.7366 15.5714 9.42857 15.5714C6.12054 15.5714 3.42857 12.8795 3.42857 9.57143C3.42857 6.26339 6.12054 3.57143 9.42857 3.57143C12.7366 3.57143 15.4286 6.26339 15.4286 9.57143ZM22.2857 20.7143C22.2857 20.2589 22.0982 19.817 21.7902 19.5089L17.1964 14.9152C18.2813 13.3482 18.8571 11.4732 18.8571 9.57143C18.8571 4.36161 14.6384 0.142856 9.42857 0.142856C4.21875 0.142856 0 4.36161 0 9.57143C0 14.7812 4.21875 19 9.42857 19C11.3304 19 13.2054 18.4241 14.7723 17.3393L19.3661 21.9196C19.6741 22.2411 20.1161 22.4286 20.5714 22.4286C21.5089 22.4286 22.2857 21.6518 22.2857 20.7143Z" fill="black"/>
</svg>

<svg width="23" height="23" viewBox="0 0 23 23" fill="none" xmlns="http://www.w3.org/2000/svg"><path d="M15.429 9.571c0 3.309-2.692 6-6 6s-6-2.691-6-6c0-3.308 2.692-6 6-6s6 2.692 6 6zm6.857 11.143c0-.455-.188-.897-.496-1.205l-4.594-4.594a9.406 9.406 0 001.661-5.344A9.425 9.425 0 009.43.143 9.425 9.425 0 000 9.57 9.425 9.425 0 009.429 19a9.407 9.407 0 005.343-1.66l4.594 4.58c.308.321.75.509 1.205.509.938 0 1.715-.777 1.715-1.715z" fill="#000"/></svg>
